X: 1
T:Bourr\'ee
M:2/4
L:1/8
O:France
R:Bourr\'ee
K:DMix
D>E FD | A>G FE | D>E FD | (3:2:3A2B2c2 | D>E FD| A>G FE | D>E FD | E4 ::
A>F GA | B>G AB | c>A Bc | d>c BA | A>F GA | B>G AB| c>F GA | F4 :|
